packages/icons/svg/Fill/battery.svg

<svg width="24" height="24" viewBox="0 0 24 24" fill="none" xmlns="http://www.w3.org/2000/svg">
<g id="Icon/Fill/battery">
<path id="Mask" fill-rule="evenodd" clip-rule="evenodd" d="M4.16649 6H15.8335C17.0285 6 18.0005 7.089 18.0005 8.429V15.571C18.0005 16.911 17.0285 18 15.8335 18H4.16649C2.97149 18 2.00049 16.911 2.00049 15.571V8.429C2.00049 7.089 2.97149 6 4.16649 6ZM20 10C20 9.448 20.448 9 21 9C21.552 9 22 9.448 22 10V14C22 14.552 21.552 15 21 15C20.448 15 20 14.552 20 14V10Z" fill="#000000"/>
</g>
</svg>

<svg fill="none" height="24" viewBox="0 0 24 24" width="24" xmlns="http://www.w3.org/2000/svg"><path clip-rule="evenodd" d="m4.16649 6h11.66701c1.195 0 2.167 1.089 2.167 2.429v7.142c0 1.34-.972 2.429-2.167 2.429h-11.66701c-1.195 0-2.166-1.089-2.166-2.429v-7.142c0-1.34.971-2.429 2.166-2.429zm15.83351 4c0-.552.448-1 1-1s1 .448 1 1v4c0 .552-.448 1-1 1s-1-.448-1-1z" fill="#6b7280" fill-rule="evenodd"/></svg>
